X:1
T:Kyrie
T:Frances Matthews
T:Kyrie
T:Latin-English Version
T:Copyright © 2012
T:Copyright © 2012
C:Frances Matthews
Z:Copyright © 2012
%%score 1 { ( 2 4 ) | 3 }
L:1/8
M:3/4
K:F
V:1 treble nm="Soprano" snm="S."
V:2 treble nm="Piano" snm="Pno."
V:4 treble 
V:3 treble 
V:1
"^Intimate" A>A AG GF | F4 z2 | (F/G)G/ GF (GF/D/) | D4 z2 | A2 AG GF | F4 z2 | (F<G) GF (GF/D/) | %7
w: Ky- ri- e e- le- i-|son,|Ky- * ri- e e- lei- * *|son,|Chris- te e- le- i-|son,|Chris- * te e- lei- * *|
 D4 z2 | A>A cG GF | F2 c4 | (F/G)G/ GF GA | F4 z2 |] A>A AG GF | F4 z2 | (F<G- G)F (GF/D/) | %15
w: son,|Ky- ri- e e- le- i-|son, oh!|Ky- * ri- e e- le- i-|son.|Ky- ri- e e- le- i-|son,|Lord _ _ have mer- * *|
 D4 z2 | A2 AG GF | F4 z2 | (F<G- G)F (GF/D/) | D4 z2 | A>A cG GF | F2 c4 | (F<G- G)F (GA) | %23
w: cy,|Chris- te e- le- i-|son,|Christ _ _ have mer- * *|cy,|Ky- ri- e e- le- i-|son, oh!|Lord _ _ have mer- *|
 F4 z2 |] %24
w: cy.|
V:2
 a>a ag gf | f6 | f/gg/ gf gf/d/ | d6 | a2 ag gf | f6 | f<g gf gf/d/ | d6 | a>a c'g gf | %9
 f2 !>!c'4 | f/gg/ gf ga | f6 |] a>a ag gf | f6 | f<g- gf gf/d/ | d6 | a2 ag gf | f6 | %18
 f<g- gf gf/d/ | d6 | a>a c'g gf | f2 !>!c'4 | f<g- gf ga | f6 |] %24
V:3
 [B,F]4 [CG]2 | [DA]6 | [A,F]6 | [B,F]6 | [B,F]4 [CG]2 | [DA]6 | [A,F]6 | [B,F]6 | [B,F]4 [CG]2 | %9
 [DA]6 | [A,F]6 | [B,F]6 |] [B,F]4 [CG]2 | [DA]6 | [A,F]6 | [B,F]6 | [B,F]4 [CG]2 | [DA]6 | %18
 [A,F]6 | [B,F]6 | [B,F]4 [CG]2 | [DA]6 | [A,F]6 | [B,F]6 |] %24
V:4
 x6 | x6 | x6 | x6 | d4 e2 | c6 | c4 c2 | c3 B3 | d4 [ce]2 | d2 !>![cdf]4 | !>!c6 | !>!d6 |] x6 | %13
 x6 | x6 | x6 | d4 e2 | c6 | c4 c2 | c3 B3 | d4 [ce]2 | d2 !>![cdf]4 | !>!c6 | !>!d6 |] %24

